src/16/calendar-16.svg

<?xml version="1.0" encoding="iso-8859-1"?>
<!-- Generator: Adobe Illustrator 19.1.0, SVG Export Plug-In . SVG Version: 6.00 Build 0)  -->
<!DOCTYPE svg PUBLIC "-//W3C//DTD SVG 1.1 Tiny//EN" "http://www.w3.org/Graphics/SVG/1.1/DTD/svg11-tiny.dtd">
<svg version="1.1" baseProfile="tiny" xmlns="http://www.w3.org/2000/svg" xmlns:xlink="http://www.w3.org/1999/xlink" x="0px"
	 y="0px" viewBox="0 0 16 16" xml:space="preserve">
<g id="Layer_1">
	<path d="M15.5,16h-15C0.224,16,0,15.776,0,15.5v-14C0,1.224,0.224,1,0.5,1H3c0.276,0,0.5,0.224,0.5,0.5S3.276,2,3,2H1v13h14V2h-1
		c-0.276,0-0.5-0.224-0.5-0.5S13.724,1,14,1h1.5C15.776,1,16,1.224,16,1.5v14C16,15.776,15.776,16,15.5,16z"/>
	<path d="M5.5,3h-2C3.224,3,3,2.776,3,2.5v-2C3,0.224,3.224,0,3.5,0h2C5.776,0,6,0.224,6,0.5v2C6,2.776,5.776,3,5.5,3z M4,2h1V1H4V2
		z"/>
	<path d="M13.5,3h-2C11.224,3,11,2.776,11,2.5v-2C11,0.224,11.224,0,11.5,0h2C13.776,0,14,0.224,14,0.5v2C14,2.776,13.776,3,13.5,3z
		 M12,2h1V1h-1V2z"/>
	<path d="M11,2H6C5.724,2,5.5,1.776,5.5,1.5S5.724,1,6,1h5c0.276,0,0.5,0.224,0.5,0.5S11.276,2,11,2z"/>
	<rect y="4" width="15" height="1"/>
	<g>
		<path d="M6.5,12.5C6.224,12.5,6,12.276,6,12V8.685L5.511,9.12C5.304,9.302,4.987,9.284,4.805,9.078
			C4.621,8.871,4.641,8.555,4.847,8.372l1.321-1.173c0.147-0.13,0.358-0.164,0.537-0.082C6.885,7.197,7,7.375,7,7.572V12
			C7,12.276,6.776,12.5,6.5,12.5z"/>
		<path d="M8,13H5c-0.276,0-0.5-0.224-0.5-0.5S4.724,12,5,12h3c0.276,0,0.5,0.224,0.5,0.5S8.276,13,8,13z"/>
	</g>
	<g>
		<path d="M9.62,13.205c-0.054,0-0.108-0.009-0.162-0.027c-0.261-0.089-0.4-0.374-0.311-0.635L10.701,8H9c0,0.276-0.224,0.5-0.5,0.5
			S8,8.276,8,8V7.5C8,7.224,8.224,7,8.5,7h2.9c0.161,0,0.312,0.078,0.407,0.209c0.094,0.131,0.118,0.3,0.065,0.452l-1.78,5.205
			C10.022,13.075,9.828,13.205,9.62,13.205z"/>
	</g>
</g>
<g id="Layer_2">
</g>
<g id="Layer_3">
</g>
</svg>

<svg baseProfile="tiny" xmlns="http://www.w3.org/2000/svg" viewBox="0 0 16 16"><path d="M15.5 16H.5a.5.5 0 0 1-.5-.5v-14A.5.5 0 0 1 .5 1H3a.5.5 0 0 1 0 1H1v13h14V2h-1a.5.5 0 0 1 0-1h1.5a.5.5 0 0 1 .5.5v14a.5.5 0 0 1-.5.5z"/><path d="M5.5 3h-2a.5.5 0 0 1-.5-.5v-2a.5.5 0 0 1 .5-.5h2a.5.5 0 0 1 .5.5v2a.5.5 0 0 1-.5.5zM4 2h1V1H4v1zM13.5 3h-2a.5.5 0 0 1-.5-.5v-2a.5.5 0 0 1 .5-.5h2a.5.5 0 0 1 .5.5v2a.5.5 0 0 1-.5.5zM12 2h1V1h-1v1z"/><path d="M11 2H6a.5.5 0 0 1 0-1h5a.5.5 0 0 1 0 1zM0 4h15v1H0zM6.5 12.5A.5.5 0 0 1 6 12V8.685l-.489.435a.5.5 0 1 1-.664-.748l1.321-1.173A.499.499 0 0 1 7 7.572V12a.5.5 0 0 1-.5.5z"/><path d="M8 13H5a.5.5 0 0 1 0-1h3a.5.5 0 0 1 0 1z"/><g><path d="M9.62 13.205a.5.5 0 0 1-.473-.662L10.701 8H9a.5.5 0 0 1-1 0v-.5a.5.5 0 0 1 .5-.5h2.9a.496.496 0 0 1 .472.661l-1.78 5.205a.497.497 0 0 1-.472.339z"/></g></svg>
